X: 10352
T: MR. R. STEWART'S WALTZ
O: Copyright.
%R: waltz
B: W. Hamilton "Universal Tune-Book" Vol. 1 Glasgow 1844 p.35 #2
S: http://imslp.org/wiki/Hamilton's_Universal_Tune-Book_(Various)
Z: 2016 John Chambers <jc:trillian.mit.edu>
M: 3/4
L: 1/8
K: C
% - - - - - - - - - - - - - - - - - - - - - - - - -
|:\
"^>"e4d2 | c2B2A2 | G2c2E2 | (A4G2) |\
F2A2D2 | (d4c2) | G2AG^FG | (g4f2) |\
"^>"e4d2 | c2B2A2 | G2c2E2 | (A4G2) |\
F2GFEF | (d4e2) | G2A2B2 | "^Fin."c6 H:|
|:\
G4AG | ^FGABcd | (^d6 | e4)z2 |\
e3dB2 | d3cA2 | A6 | G4z2 |\
G4AG | ^FGABcd | A2B2c2 | d2e2f2 |\
g6- | g2f2B2 | d6 | c4"^D.C."z2 :|
% - - - - - - - - - - - - - - - - - - - - - - - - -

%%sep 1 1 500
%%sep 1 1 500

